X:426
T:Reel 426
M:4/4
K:Gmaj
L:1/8
fd|fdde fdeB|A2GB AGEG|Bddf gabc'|d'bad' bga2|ed (3BAG ABcd|ed (3fed efge|dBde gabd'|d'bga bgg2|d'c'|bgd'b e'gd'g|dgbg ageg|bd' (3bd'd' e'c'd'c'|be'd'c' bggc'|bd'd'b e'bga|bgag efga|bgaf gedB|de'bd' agg|
